X: 22158
T: L'Air Mignonne
R: barndance
M: 4/4
K: Gmajor
DGA|B3d BAGA|B3d BAGA|E3G D3 B|AGFG ADGA|
B3d BAGA|B3d BAGA|E3G D3 B|AGFA GABd||
e3g edBd|e3g edBG|E3G D3B|AGFG ADBd|
e3g edBd|e3g edBG|E3G D3B|AGFA GDGA||

